www/assets/icons/18_up_rating.svg

<svg xmlns="http://www.w3.org/2000/svg" width="24" height="24" viewBox="0 0 24 24" fill='currentColor'><path d="M14.5 12.5H13V14h1.5zm0-2.5H13v1.5h1.5z"/><path d="M19 3H5c-1.1 0-2 .9-2 2v14c0 1.1.9 2 2 2h14c1.1 0 2-.9 2-2V5c0-1.1-.9-2-2-2m-9 12H8.5v-4.5H7V9h3zm6-1c0 .55-.45 1-1 1h-2.5c-.55 0-1-.45-1-1v-4c0-.55.45-1 1-1H15c.55 0 1 .45 1 1z"/></svg>

<svg width="24" height="24" viewBox="0 0 24 24" xmlns="http://www.w3.org/2000/svg" fill='currentColor'><path d="M14.5 12.5H13V14H14.5V12.5Z"/><path d="M14.5 10H13V11.5H14.5V10Z"/><path d="M19 3H5C3.9 3 3 3.9 3 5V19C3 20.1 3.9 21 5 21H19C20.1 21 21 20.1 21 19V5C21 3.9 20.1 3 19 3ZM10 15H8.5V10.5H7V9H10V15ZM16 14C16 14.55 15.55 15 15 15H12.5C11.95 15 11.5 14.55 11.5 14V10C11.5 9.45 11.95 9 12.5 9H15C15.55 9 16 9.45 16 10V14Z"/></svg>
